X: 6
T: Missa Malheur me bat / Gloria
N: Derived from Agr1004b-Missa_Malheur_me_bat-Gloria.krn
C: Alexander Agricola
%%abc-version 2.0
%%abcx-abcm2ps-target-version 5.9.1 (29 Sep 2008)
%%abc-creator hum2abc beta
%%abcx-conversion-date 2019/02/16 20:17:15
%%abc-edited-by Jesse Rodin
%%abc-edited-by Jesse Rodin; Megan K. Eagen 2013/04/23
%%abcx-initial-encoding-date 2013/04/23/
%%humdrum-veritas 2811943695
%%humdrum-veritas-data 932368737
%%linebreak <none>
%%barnumbers 0
L: 1/4
M: 2/1
Q: 1/2=120
%%staves [1 2 3 4]
V: 1 clef=treble
V: 2 clef=treble-8
V: 3 clef=treble-8
V: 4 clef=bass
K: C
[V:1] E8- | 
[V:2] E8 | 
[V:3] z8 :
[V:4] E,6F,2 | 
[V:1] E8- | 
[V:2] B4B4 | 
[V:3] x8 :
[V:4] G,4G,4 | 
[V:1] E8 | 
[V:2] c4c4 | 
[V:3] x8 | 
[V:4] A,4A,4 | 
[V:1] B8- | 
[V:2] B4G2B2- | 
[V:3] z8 :
[V:4] G,8 | 
[V:1] B8 | 
[V:2] Bcd4cB | 
[V:3] x8 :
[V:4] G,4G,4- | 
[V:1] c8 | 
[V:2] A3GA4 | 
[V:3] x8 | 
[V:4] G,2F,E,F,4 | 
[V:1] B4G2B2- | 
[V:2] G8 | 
[V:3] z8 :
[V:4] G,4E,4 | 
[V:1] Bcd4cB | 
[V:2] G3AB3c | 
[V:3] x8 :
[V:4] G,8 | 
[V:1] A3GA4 | 
[V:2] d2e4d2 | 
[V:3] x8 | 
[V:4] F,3E,F,4 | 
[V:1] G8 | 
[V:2] e6dc | 
[V:3] z8 :
[V:4] E,8 | 
[V:1] F4E4 | 
[V:2] d2D4C2 | 
[V:3] x8 :
[V:4] z8 | 
[V:1] F6ED | 
[V:2] DEFGABcd | 
[V:3] x8 | 
[V:4] z8 | 
[V:1] E3DE2D2 | 
[V:2] c2BAG2B2 | 
[V:3] z8 :
[V:4] z8 | 
[V:1] F4E4 | 
[V:2] A2d4^c2 | 
[V:3] x8 :
[V:4] z8 | 
[V:1] D8 | 
[V:2] d4B4 | 
[V:3] x8 | 
[V:4] z4B,4- | 
[V:1] z8 | 
[V:2] c6BA | 
[V:3] z8 :
[V:4] B,2A,G,A,4 | 
[V:1] z8 | 
[V:2] G6FE | 
[V:3] x8 :
[V:4] B,4E,4- | 
[V:1] z8 | 
[V:2] G2A2F4 | 
[V:3] x8 | 
[V:4] E,2D,C,D,4 | 
[V:1] z8 | 
[V:2] E8 | 
[V:3] z8 :
[V:4] E,4z2A,,2- | 
[V:1] z8 | 
[V:2] E4E3F | 
[V:3] x8 :
[V:4] A,,2G,,2A,,B,,C,D, | 
[V:1] z8 | 
[V:2] G2A2G2E2- | 
[V:3] x8 | 
[V:4] B,,2A,,2E,4 | 
[V:1] z8 | 
[V:2] E2E4DC | 
[V:3] z8 :
[V:4] C,2G,2G,2F,E, | 
[V:1] z8 | 
[V:2] D2C2EFGA | 
[V:3] x8 :
[V:4] F,2E,2C,4 | 
[V:1] z8 | 
[V:2] F2E2B2c2- | 
[V:3] x8 | 
[V:4] D,2E,3D,C,B,, | 
[V:1] z8 | 
[V:2] cBA2G2F2- | 
[V:3] z8 :
[V:4] A,,3B,,C,2D,2- | 
[V:1] z8 | 
[V:2] FED2E2F2 | 
[V:3] x8 :
[V:4] D,C,B,,A,,G,,2F,,2 | 
[V:1] z8 | 
[V:2] D2G4^F2 | 
[V:3] x8 | 
[V:4] _B,,4A,,4 | 
[V:1] G6FE | 
[V:2] G4E4 | 
[V:3] z8 :
[V:4] G,,4G,4- | 
[V:1] D3EF2E2 | 
[V:2] z8 | 
[V:3] x8 :
[V:4] G,2F,E,D,2C,2 | 
[V:1] FEDCDCB,A, | 
[V:2] z8 | 
[V:3] x8 | 
[V:4] D,2E,2F,4 | 
[V:1] G,2G4E2- | 
[V:2] B4B4- | 
[V:3] z8 :
[V:4] E,8 | 
[V:1] E2DCD4 | 
[V:2] B2AGA3G | 
[V:3] x8 | 
[V:4] F,6E,D, | 
[V:1] E3FG2A2 | 
[V:2] c3de2c2 | 
[V:3] z8 :
[V:4] C,8 | 
[V:1] G2c4B2 | 
[V:2] e2f2d4 | 
[V:3] x8 :
[V:4] z4G,4 | 
[V:1] c6BA | 
[V:2] c4A4 | 
[V:3] x8 | 
[V:4] A,6G,F, | 
[V:1] G4A2B2- | 
[V:2] B2c4B2 | 
[V:3] z8 :
[V:4] E,4F,2G,2- | 
[V:1] B2GABAc2- | 
[V:2] GABcd2e2 | 
[V:3] x8 :
[V:4] G,F,E,3D,C,2 | 
[V:1] cBA4^G2 | 
[V:2] A4B4 | 
[V:3] x8 | 
[V:4] F,4E,4 | 
[V:1] A8 | 
[V:2] z2A3Bcd | 
[V:3] E8- :
[V:4] A,,8 | 
[V:1] c6BA | 
[V:2] e4e4 | 
[V:3] E8- :
[V:4] A,,4A,,4 | 
[V:1] G8 | 
[V:2] e6dc | 
[V:3] E8 | 
[V:4] C,6B,,A,, | 
[V:1] G6FE | 
[V:2] d4d4 | 
[V:3] B8- :
[V:4] G,,6G,,2 | 
[V:1] D2G3AB2- | 
[V:2] d4B2G2- | 
[V:3] B8- :
[V:4] G,,4G,,4 | 
[V:1] BAG3FED | 
[V:2] GABcd4 | 
[V:3] B8 | 
[V:4] G,,8 | 
[V:1] E2C2E3F | 
[V:2] G4z2G2- | 
[V:3] c8- :
[V:4] C,4C,3D, | 
[V:1] G2A4GF | 
[V:2] G2F2A3B | 
[V:3] c8- :
[V:4] E,2F,4E,D, | 
[V:1] E4z4 | 
[V:2] cBAGF3E | 
[V:3] c8 | 
[V:4] C,3B,,A,,G,,A,,2 | 
[V:1] z8 | 
[V:2] G4D4 | 
[V:3] B4A4 :
[V:4] G,,2G,4F,2 | 
[V:1] z8 | 
[V:2] z2d2e2g2- | 
[V:3] G8- :
[V:4] G,4C,4 | 
[V:1] z8 | 
[V:2] gfe4d2- | 
[V:3] G8 | 
[V:4] B,,2C,4D,2 | 
[V:1] z4A,4- | 
[V:2] d2^c2d4- | 
[V:3] G4F4- :
[V:4] E,4D,4- | 
[V:1] A,2B,2C4- | 
[V:2] d4c2BA | 
[V:3] F4F4 :
[V:4] D,2C,B,,A,,3B,, | 
[V:1] C2B,A,G,4 | 
[V:2] G4c3B | 
[V:3] E8 | 
[V:4] C,4C,4 | 
[V:1] A,8 | 
[V:2] AGF2D2F2- | 
[V:3] F8 :
[V:4] F,,4z2D,2- | 
[V:1] D4D4 | 
[V:2] FEDCD4 | 
[V:3] F4F4 :
[V:4] D,C,B,,A,,B,,4 | 
[V:1] E3FG2G2- | 
[V:2] C6D2 | 
[V:3] E6F2 | 
[V:4] C,6B,,A,, | 
[V:1] GFEDC4 | 
[V:2] E4F4- | 
[V:3] G4A4- :
[V:4] G,,2C,2F,,4- | 
[V:1] c6B2 | 
[V:2] F2EDC4 | 
[V:3] A2G2E4 :
[V:4] F,,4z2C,2 | 
[V:1] A4z2d2 | 
[V:2] z4D4 | 
[V:3] F4G4 | 
[V:4] D,4B,,4 | 
[V:1] c2BAG2c2- | 
[V:2] E4E4 | 
[V:3] A4E4 :
[V:4] A,,4z2C,2 | 
[V:1] cBAGA4- | 
[V:2] A4A3B | 
[V:3] F8 :
[V:4] D,4D,4 | 
[V:1] A2GFE4 | 
[V:2] c2BAG4 | 
[V:3] E8 | 
[V:4] A,,4z2C,2 | 
[V:1] F2A4GF | 
[V:2] F3GABc2- | 
[V:3] z8 :
[V:4] D,3C,A,,3B,, | 
[V:1] E2F4ED | 
[V:2] cBA4^G2 | 
[V:3] x8 :
[V:4] C,2D,2B,,4 | 
[V:1] C4z4 | 
[V:2] A4A3G/A/ | 
[V:3] x8 | 
[V:4] A,,3B,,C,2D,2- | 
[V:1] z8 | 
[V:2] B2A2c2dc | 
[V:3] z8 :
[V:4] D,E,F,G,A,2D,2 | 
[V:1] z8 | 
[V:2] BAd4^c2 | 
[V:3] x8 :
[V:4] F,2G,2E,4 | 
[V:1] F8 | 
[V:2] d8 | 
[V:3] x8 | 
[V:4] D,8 | 
[V:1] E4A4- | 
[V:2] c6BA | 
[V:3] z8 :
[V:4] z8 | 
[V:1] A2GFG4- | 
[V:2] G4B4 | 
[V:3] x8 :
[V:4] z8 | 
[V:1] G2FEF4 | 
[V:2] A3GA4 | 
[V:3] x8 | 
[V:4] z8 | 
[V:1] G3FEDF2- | 
[V:2] G2B2c2d2- | 
[V:3] z8 :
[V:4] z8 | 
[V:1] F2E2D4 | 
[V:2] d2c4B2 | 
[V:3] x8 :
[V:4] z8 | 
[V:1] C8 | 
[V:2] c4z4 | 
[V:3] x8 | 
[V:4] z8 | 
[V:1] z8 | 
[V:2] C3DE2F2- | 
[V:3] z8 :
[V:4] z8 | 
[V:1] C3DE2F2- | 
[V:2] F2E4D2- | 
[V:3] x8 :
[V:4] z8 | 
[V:1] F2E4D2- | 
[V:2] D2G4F2 | 
[V:3] x8 | 
[V:4] z8 | 
[V:1] D2G4F2 | 
[V:2] G4A2GF | 
[V:3] z8 :
[V:4] z8 | 
[V:1] G4A4 | 
[V:2] E2G2F4 | 
[V:3] x8 :
[V:4] z8 | 
[V:1] G2E2F4 | 
[V:2] E2e4d2 | 
[V:3] x8 | 
[V:4] z8 | 
[V:1] EFGAB2c2- | 
[V:2] c2BAG2A2 | 
[V:3] z8 :
[V:4] z8 | 
[V:1] c2B4A2 | 
[V:2] B2d2c4 | 
[V:3] x8 :
[V:4] z8 | 
[V:1] B6AG | 
[V:2] B4G4 | 
[V:3] x8 | 
[V:4] z8 | 
[V:1] A2G4FE | 
[V:2] z2E3FGA | 
[V:3] z8 :
[V:4] z8 | 
[V:1] D2C2E3F | 
[V:2] B2c4A2 | 
[V:3] x8 :
[V:4] z8 | 
[V:1] D2C4A,2 | 
[V:2] B2c2e3f | 
[V:3] x8 | 
[V:4] z8 | 
[V:1] B,2C2E3F | 
[V:2] d2c4A2 | 
[V:3] z8 :
[V:4] z8 | 
[V:1] D2C4G2 | 
[V:2] B2c2e3f | 
[V:3] x8 :
[V:4] z8 | 
[V:1] A2c4B2 | 
[V:2] d2c2d4 | 
[V:3] x8 | 
[V:4] z8 | 
[V:1] c6BA | 
[V:2] c2A4GF | 
[V:3] e8- :
[V:4] z8 | 
[V:1] G4z4 | 
[V:2] E2C2c4 | 
[V:3] e8- :
[V:4] z4z2A,2- | 
[V:1] z8 | 
[V:2] c2BAG4 | 
[V:3] e8 | 
[V:4] A,2G,F,E,4 | 
[V:1] z8 | 
[V:2] A6GF | 
[V:3] c8- :
[V:4] z2F,4E,D, | 
[V:1] z4z2A2- | 
[V:2] G2E2F4- | 
[V:3] c8- :
[V:4] C,4z4 | 
[V:1] A2GFE4 | 
[V:2] F2EDC4 | 
[V:3] c8 | 
[V:4] z8 | 
[V:1] z2F4ED | 
[V:2] z8 | 
[V:3] d8 :
[V:4] z4D,4 | 
[V:1] C8 | 
[V:2] A8 | 
[V:3] e8- :
[V:4] A,,8- | 
[V:1] C6D2 | 
[V:2] A6B2 | 
[V:3] e8 | 
[V:4] A,,8 | 
[V:1] E4E4 | 
[V:2] c8- | 
[V:3] A8- :
[V:4] A,,8- | 
[V:1] E4E4- | 
[V:2] c8 | 
[V:3] A8- :
[V:4] A,,4A,,4 | 
[V:1] E4F4 | 
[V:2] c8 | 
[V:3] A8 | 
[V:4] A,,4A,,4 | 
[V:1] G6FE | 
[V:2] d8 | 
[V:3] B8- :
[V:4] G,,4z2G,2- | 
[V:1] D6G2- | 
[V:2] z8 | 
[V:3] B8- :
[V:4] G,2F,E,D,2E,2 | 
[V:1] GAB4G2- | 
[V:2] d4B2e2- | 
[V:3] B8 | 
[V:4] D,2G,3F,E,D, | 
[V:1] G2c3BA2- | 
[V:2] ede3dcB | 
[V:3] c8- :
[V:4] C,3D,E,2F,2- | 
[V:1] A2GFA2G2 | 
[V:2] A6B2 | 
[V:3] c8- :
[V:4] F,2E,D,F,2E,2 | 
[V:1] E6F2 | 
[V:2] c3de4- | 
[V:3] c8 | 
[V:4] A,,8 | 
[V:1] G8 | 
[V:2] e4e4- | 
[V:3] B8 :
[V:4] E,8- | 
[V:1] G4B4- | 
[V:2] e2dcB2G2 | 
[V:3] G8- :
[V:4] E,8- | 
[V:1] B2G2B3c | 
[V:2] B4G4 | 
[V:3] G8 | 
[V:4] E,8 | 
[V:1] d2cBA3B | 
[V:2] F8 | 
[V:3] A8- :
[V:4] D,8 | 
[V:1] c3BAGF2- | 
[V:2] E4F4 | 
[V:3] A8- :
[V:4] C,4D,4- | 
[V:1] F2D2E2F2 | 
[V:2] D4C4 | 
[V:3] A8 | 
[V:4] D,2C,B,,A,,4 | 
[V:1] G6FE | 
[V:2] D4z2d2- | 
[V:3] B8- :
[V:4] G,,8- | 
[V:1] D3CD4 | 
[V:2] dcBAG2B2 | 
[V:3] B8 :
[V:4] G,,8 | 
[V:1] C8 | 
[V:2] A2c3de2 | 
[V:3] E8 | 
[V:4] A,,8- | 
[V:1] z8 | 
[V:2] c3de4 | 
[V:3] F4E4- :
[V:4] A,,8 | 
[V:1] C8 | 
[V:2] e3dc2BA | 
[V:3] E4e4- :
[V:4] A,,8 | 
[V:1] G8- | 
[V:2] G4z4 | 
[V:3] e2d2B4 | 
[V:4] z8 | 
[V:1] G8 | 
[V:2] z2E2E4 | 
[V:3] c4B4 :
[V:4] z8 | 
[V:1] A6GF | 
[V:2] F6ED | 
[V:3] A2c4d2 :
[V:4] z8 | 
[V:1] GFEDC2c2 | 
[V:2] E4F4 | 
[V:3] B4A4 | 
[V:4] z8 | 
[V:1] B2d3cBA | 
[V:2] G8 | 
[V:3] d4B4 :
[V:4] z8 | 
[V:1] G2E2B4- | 
[V:2] C4z4 | 
[V:3] c4B4 :
[V:4] z4G,4 | 
[V:1] B2AGA4 | 
[V:2] z8 | 
[V:3] c8 | 
[V:4] E,4F,4 | 
[V:1] B4z2B2 | 
[V:2] G8 | 
[V:3] B4G4 :
[V:4] G,4E,4 | 
[V:1] A2c3BA2- | 
[V:2] A4F4 | 
[V:3] c4d4 :
[V:4] F,4D,4 | 
[V:1] A2^G^FG4 | 
[V:2] G8 | 
[V:3] B8 | 
[V:4] E,8 | 
[V:1] A8 ||  
[V:2] E8 ||  
[V:3] A8 ||  
[V:4] A,,8 ||  
[V:1]  [K:C] [K:clef=treble][M:2/1]z8 | 
[V:2]  [K:C] [K:clef=treble-8][M:2/1]E8 | 
[V:3]  [K:C] [K:clef=treble-8][M:2/1]z8 | 
[V:4]  [K:C] [K:clef=bass][M:2/1]z8 | 
[V:1] z8 | 
[V:2] B4B4 | 
[V:3] z8 | 
[V:4] z8 | 
[V:1] A,8 | 
[V:2] c4A2c2- | 
[V:3] z8 | 
[V:4] z8 | 
[V:1] E4E4 | 
[V:2] cBA2G2A2- | 
[V:3] z8 | 
[V:4] z8 | 
[V:1] F4F4 | 
[V:2] AGFED2CD | 
[V:3] z8 | 
[V:4] z8 | 
[V:1] E4E4- | 
[V:2] E2C3DEF | 
[V:3] E8 | 
[V:4] z8 | 
[V:1] E2DCD4 | 
[V:2] G3AG4 | 
[V:3] B4B4 | 
[V:4] z8 | 
[V:1] E4E3F | 
[V:2] C2c3de2- | 
[V:3] c4c4 | 
[V:4] A,,8 | 
[V:1] G2G3FED | 
[V:2] e2dcB2e2- | 
[V:3] B4G4 | 
[V:4] E,4E,4 | 
[V:1] C4D4 | 
[V:2] edcBc2d2 | 
[V:3] A8 | 
[V:4] F,4F,4 | 
[V:1] E8 | 
[V:2] G6c2- | 
[V:3] z4E4 | 
[V:4] E,4C,4 | 
[V:1] z8 | 
[V:2] cBAGA2B2 | 
[V:3] F8 | 
[V:4] D,8 | 
[V:1] E8 | 
[V:2] c4C4 | 
[V:3] E4A4- | 
[V:4] C,4A,,4 | 
[V:1] D8 | 
[V:2] z4D4 | 
[V:3] A4G4 | 
[V:4] B,,3A,,B,,4 | 
[V:1] C3DE3F | 
[V:2] E4C4 | 
[V:3] A6G2 | 
[V:4] A,,2C,4B,,A,, | 
[V:1] G4A4 | 
[V:2] z4c4- | 
[V:3] E4F4 | 
[V:4] G,,4F,,4 | 
[V:1] E4F4- | 
[V:2] c4c4- | 
[V:3] G4A4 | 
[V:4] z4F,,4 | 
[V:1] F2E2E4- | 
[V:2] c4c4 | 
[V:3] E8 | 
[V:4] C,8 | 
[V:1] E4D4 | 
[V:2] A6B2 | 
[V:3] F8 | 
[V:4] D,8 | 
[V:1] E8 | 
[V:2] c6BA | 
[V:3] E8 | 
[V:4] A,,4C,4 | 
[V:1] z8 | 
[V:2] G4z2A2- | 
[V:3] z8 | 
[V:4] B,,4A,,4 | 
[V:1] z8 | 
[V:2] ABc3BA2 | 
[V:3] z8 | 
[V:4] z2A,3B,C2 | 
[V:1] z8 | 
[V:2] G2A2F4 | 
[V:3] z8 | 
[V:4] B,2A,4G,F, | 
[V:1] z8 | 
[V:2] G2A2B2G2- | 
[V:3] z8 | 
[V:4] E,2D,2G,4 | 
[V:1] z8 | 
[V:2] G2F2G2A2 | 
[V:3] z8 | 
[V:4] G,,2A,,2G,,2C,2 | 
[V:1] z8 | 
[V:2] G2c4B2 | 
[V:3] z8 | 
[V:4] E,2F,2D,4 | 
[V:1] G8- | 
[V:2] c8- | 
[V:3] e8- | 
[V:4] C,8- | 
[V:1] G4G4 | 
[V:2] c4c4 | 
[V:3] e4e4 | 
[V:4] C,4C,4 | 
[V:1] G8 | 
[V:2] c8 | 
[V:3] e8 | 
[V:4] C,8 | 
[V:1] A8 | 
[V:2] f6ed | 
[V:3] c8 | 
[V:4] F,,8 | 
[V:1] A4A4- | 
[V:2] c4A2c2- | 
[V:3] c8 | 
[V:4] A,,8 | 
[V:1] A4A4 | 
[V:2] cBAGF4 | 
[V:3] c4c4 | 
[V:4] A,,4A,,4 | 
[V:1] B8 | 
[V:2] z2G4FE | 
[V:3] d8 | 
[V:4] G,,8 | 
[V:1] B4B4- | 
[V:2] D2G4A2 | 
[V:3] d8 | 
[V:4] G,,8 | 
[V:1] B4G4 | 
[V:2] B6AB | 
[V:3] d8 | 
[V:4] G,,8 | 
[V:1] G8- | 
[V:2] c8- | 
[V:3] e8- | 
[V:4] C,8- | 
[V:1] G8 | 
[V:2] c8 | 
[V:3] e8 | 
[V:4] C,8 | 
[V:1] F4E2F2- | 
[V:2] z8 | 
[V:3] A8- | 
[V:4] D,4C,2D,2- | 
[V:1] F2E4D2 | 
[V:2] z4z2A2- | 
[V:3] A8 | 
[V:4] D,2E,2F,4 | 
[V:1] E6F2 | 
[V:2] A2G2A4 | 
[V:3] B4c4 | 
[V:4] E,4A,,4 | 
[V:1] G2A2B4- | 
[V:2] E8 | 
[V:3] B4G4- | 
[V:4] z8 | 
[V:1] B4A4- | 
[V:2] E4F4 | 
[V:3] G4A4 | 
[V:4] z8 | 
[V:1] A2GFG2E2 | 
[V:2] E6DC | 
[V:3] B8 | 
[V:4] z8 | 
[V:1] GABA/B/c2B2- | 
[V:2] C2G2E2GA | 
[V:3] E8- | 
[V:4] z8 | 
[V:1] B2A4^G2 | 
[V:2] BA/B/c2B4 | 
[V:3] E8 | 
[V:4] z8 | 
[V:1] A4c4- | 
[V:2] A6GF | 
[V:3] e8 | 
[V:4] z8 | 
[V:1] c2B2B4- | 
[V:2] E3DG4 | 
[V:3] e4d4 | 
[V:4] z8 | 
[V:1] B4A4 | 
[V:2] E4F4 | 
[V:3] c8 | 
[V:4] z8 | 
[V:1] B4z2B,2 | 
[V:2] G4G4 | 
[V:3] B8- | 
[V:4] G,,8 | 
[V:1] D4z4 | 
[V:2] z2B2d4 | 
[V:3] B8 | 
[V:4] G,,4z2B,,2 | 
[V:1] z8 | 
[V:2] z2B2d3c | 
[V:3] z8 | 
[V:4] D,4z2B,,2 | 
[V:1] z8 | 
[V:2] B2A2d4 | 
[V:3] z8 | 
[V:4] D,3C,B,,2A,,2 | 
[V:1] z2B,2D4 | 
[V:2] z8 | 
[V:3] z4z2B2 | 
[V:4] D,3C,B,,A,,G,,2 | 
[V:1] z2B,2D3C | 
[V:2] z8 | 
[V:3] d4z2B2 | 
[V:4] z8 | 
[V:1] B,2A,2D4 | 
[V:2] z8 | 
[V:3] d3cB2A2 | 
[V:4] z8 | 
[V:1] z4z2B2 | 
[V:2] z2B2d3c | 
[V:3] d4z4 | 
[V:4] z8 | 
[V:1] d3cB2A2 | 
[V:2] B2A2d4 | 
[V:3] z8 | 
[V:4] z8 | 
[V:1] c4B2A2- | 
[V:2] e4d2f2 | 
[V:3] z2A2d3c | 
[V:4] z4G,2F,2 | 
[V:1] ABG4^F2 | 
[V:2] e2c2d4 | 
[V:3] B2AGA4 | 
[V:4] G,2E,2D,4 | 
[V:1] G4z4 | 
[V:2] B2c2B2e2- | 
[V:3] G4G3A | 
[V:4] G,,3A,,B,,2C,2 | 
[V:1] G3AB2c2- | 
[V:2] edcB/A/G4 | 
[V:3] B2c2B2e2- | 
[V:4] B,,2E,3D,C,B,, | 
[V:1] cBB4A2 | 
[V:2] C2G4F2 | 
[V:3] edB2c4 | 
[V:4] A,,2G,,2A,,4 | 
[V:1] B4c2d2- | 
[V:2] G3FE2D2 | 
[V:3] B2e3df2 | 
[V:4] G,,4C,2_B,,2 | 
[V:1] dcc4B2 | 
[V:2] E2C2G3F | 
[V:3] c4d4 | 
[V:4] A,,4G,,4 | 
[V:1] c3BA2GF | 
[V:2] EDC2D4 | 
[V:3] z2c4B2 | 
[V:4] C,4z4 | 
[V:1] E3DC2B,2 | 
[V:2] C3DE4 | 
[V:3] c2A4G2 | 
[V:4] z8 | 
[V:1] C2A,4G,2 | 
[V:2] E2C2D2E2 | 
[V:3] A2c2B4 | 
[V:4] z8 | 
[V:1] A,B,CDE2G2 | 
[V:2] F3E/D/C4 | 
[V:3] A3Bcde2- | 
[V:4] z8 | 
[V:1] F4E4 | 
[V:2] D4A4 | 
[V:3] e2d2c2e2- | 
[V:4] z8 | 
[V:1] z2A4G2- | 
[V:2] G2F4ED | 
[V:3] e2d2c2e2- | 
[V:4] z8 | 
[V:1] G2FED4 | 
[V:2] C4G4 | 
[V:3] e2dcB4 | 
[V:4] z8 | 
[V:1] C2G4A2 | 
[V:2] C4z4 | 
[V:3] c4B4 | 
[V:4] z8 | 
[V:1] B4E4 | 
[V:2] z8 | 
[V:3] G6A2 | 
[V:4] z8 | 
[V:1] D2G3FED | 
[V:2] z8 | 
[V:3] B4E4 | 
[V:4] z8 | 
[V:1] C2B,A,G,2G2- | 
[V:2] z8 | 
[V:3] F4E4 | 
[V:4] z8 | 
[V:1] GFEDE2F2 | 
[V:2] z8 | 
[V:3] z2c3Bd2 | 
[V:4] z8 | 
[V:1] E2A4^G2 | 
[V:2] z8 | 
[V:3] A2c2B4 | 
[V:4] z8 | 
[V:1] A6GF | 
[V:2] z8 | 
[V:3] A4c4- | 
[V:4] z8 | 
[V:1] E4D4 | 
[V:2] z8 | 
[V:3] c2BAB4 | 
[V:4] z8 | 
[V:1] E2G3FED | 
[V:2] z8 | 
[V:3] E8- | 
[V:4] z8 | 
[V:1] C2B,2z4 | 
[V:2] z8 | 
[V:3] E4F4 | 
[V:4] z4z2D,2- | 
[V:1] z8 | 
[V:2] z4z2A2- | 
[V:3] E4z4 | 
[V:4] D,2C,2D,4 | 
[V:1] z8 | 
[V:2] A2G2A4 | 
[V:3] z8 | 
[V:4] E,4F,3E, | 
[V:1] z8 | 
[V:2] B4c4 | 
[V:3] z8 | 
[V:4] D,C,D,2C,2E,2- | 
[V:1] z8 | 
[V:2] B2G2A4 | 
[V:3] z8 | 
[V:4] E,D,G,4F,2 | 
[V:1] z8 | 
[V:2] G8- | 
[V:3] z8 | 
[V:4] G,2E,4D,C, | 
[V:1] z8 | 
[V:2] G4G4- | 
[V:3] z8 | 
[V:4] B,,2C,3B,,G,,2 | 
[V:1] z8 | 
[V:2] G2^FE^F4 | 
[V:3] z8 | 
[V:4] B,,2C,2A,,4 | 
[V:1] z8 | 
[V:2] G8- | 
[V:3] z8 | 
[V:4] G,,3A,,B,,2C,2- | 
[V:1] z8 | 
[V:2] G8 | 
[V:3] z8 | 
[V:4] C,D,E,F,G,2E,2 | 
[V:1] z8 | 
[V:2] A4G4 | 
[V:3] z8 | 
[V:4] F,4E,4 | 
[V:1] z8 | 
[V:2] c4d4 | 
[V:3] z8 | 
[V:4] E,2F,4E,D, | 
[V:1] z8 | 
[V:2] e6f2- | 
[V:3] z8 | 
[V:4] C,2A,,2C,2D,2 | 
[V:1] z8 | 
[V:2] f2edc4 | 
[V:3] z4e4 | 
[V:4] _B,,4A,,3=B,, | 
[V:1] z8 | 
[V:2] z4d4 | 
[V:3] e2f4ed | 
[V:4] C,2D,4C,B,, | 
[V:1] z8 | 
[V:2] e2c3BAG | 
[V:3] c4z4 | 
[V:4] A,,2A,3G,F,E, | 
[V:1] z8 | 
[V:2] A2B2c4 | 
[V:3] d4e4 | 
[V:4] F,2G,2C,4 | 
[V:1] z8 | 
[V:2] A6GA | 
[V:3] c2d3cBA | 
[V:4] F,8 | 
[V:1] B4B2c2- | 
[V:2] B2G3Ee2- | 
[V:3] G2E2G2A2 | 
[V:4] E,4z4 | 
[V:1] c2BAG4 | 
[V:2] e2d2e4 | 
[V:3] F4E2e2 | 
[V:4] z8 | 
[V:1] A2G4c2- | 
[V:2] z2c4BA | 
[V:3] f2e4dc | 
[V:4] z8 | 
[V:1] c2B2c4- | 
[V:2] G4C4- | 
[V:3] d4c4- | 
[V:4] G,,4A,,4- | 
[V:1] c4z4 | 
[V:2] C2D2E4 | 
[V:3] c8- | 
[V:4] A,,2B,,2C,4- | 
[V:1] G4A4- | 
[V:2] E4F4- | 
[V:3] c4z4 | 
[V:4] C,4F,,4 | 
[V:1] A4B4- | 
[V:2] F4z4 | 
[V:3] c4d4- | 
[V:4] A,,4G,,4- | 
[V:1] B4z4 | 
[V:2] D4C4 | 
[V:3] d4e4- | 
[V:4] G,,4C,4- | 
[V:1] G4A4- | 
[V:2] c6B2 | 
[V:3] e8 | 
[V:4] C,2B,,2A,,2G,,2 | 
[V:1] A4B4- | 
[V:2] A2c2B2G2- | 
[V:3] c4d4- | 
[V:4] A,,4G,,4- | 
[V:1] B4c4- | 
[V:2] GAB2G2c2- | 
[V:3] d4e4- | 
[V:4] G,,4C,4- | 
[V:1] c2B2A4- | 
[V:2] c2c4c2- | 
[V:3] e4f4- | 
[V:4] C,4F,,4- | 
[V:1] A2G2F4 | 
[V:2] c2c3AB2 | 
[V:3] f2e2d4 | 
[V:4] F,,4z4 | 
[V:1] E4C2E2- | 
[V:2] c2A2G4 | 
[V:3] c8- | 
[V:4] z4C,4- | 
[V:1] EFG3FED | 
[V:2] C2E3GG2- | 
[V:3] c8 | 
[V:4] C,8- | 
[V:1] C2G4E2- | 
[V:2] GFEDC2G2- | 
[V:3] c8- | 
[V:4] C,4C,4- | 
[V:1] ECC2E3F | 
[V:2] G2E4C2 | 
[V:3] c8 | 
[V:4] C,4A,,4 | 
[V:1] D4z4 | 
[V:2] G4C4- | 
[V:3] B4c4- | 
[V:4] G,,4z2A,,2- | 
[V:1] C4B,4 | 
[V:2] C4z4 | 
[V:3] c2BAG4 | 
[V:4] A,,B,,C,D,E,4 | 
[V:1] E6D2 | 
[V:2] z8 | 
[V:3] c4B4 | 
[V:4] C,4G,4 | 
[V:1] C4B,4 | 
[V:2] z8 | 
[V:3] e6dc | 
[V:4] A,4G,4- | 
[V:1] B3A/B/c2d2 | 
[V:2] z8 | 
[V:3] d4c2B2 | 
[V:4] G,4A,2G,2 | 
[V:1] c2B3AA2- | 
[V:2] z8 | 
[V:3] c2d4c2 | 
[V:4] A,2B,2G,2A,2 | 
[V:1] A2^G2A4- | 
[V:2] z8 | 
[V:3] B4A4- | 
[V:4] E,4A,,4- | 
[V:1] A4z4 | 
[V:2] A4B2c2- | 
[V:3] A4z4 | 
[V:4] A,,4z4 | 
[V:1] z8 | 
[V:2] c2BAG2A2 | 
[V:3] z8 | 
[V:4] A,4B,2C2- | 
[V:1] z8 | 
[V:2] F4E2e2- | 
[V:3] z8 | 
[V:4] C2B,A,G,2A,2 | 
[V:1] A4B2c2- | 
[V:2] e2d3ce2- | 
[V:3] z8 | 
[V:4] F,4E,4 | 
[V:1] c2BAG2E2 | 
[V:2] e2d2e4- | 
[V:3] A4B2c2- | 
[V:4] F,4E,2C,2- | 
[V:1] G3AB4 | 
[V:2] e4z4 | 
[V:3] c2BAG2E2 | 
[V:4] C,D,E,F,G,3A, | 
[V:1] z4z2G2- | 
[V:2] d4e4 | 
[V:3] G3AB4 | 
[V:4] B,4E,4- | 
[V:1] GFE2D4 | 
[V:2] c2c4B2 | 
[V:3] c4z2d2 | 
[V:4] E,2C,2G,4 | 
[V:1] C6D2 | 
[V:2] c2BAG4- | 
[V:3] e6d2 | 
[V:4] C,8- | 
[V:1] E4D2G2- | 
[V:2] G2E2G4- | 
[V:3] c4B4 | 
[V:4] C,4G,,4 | 
[V:1] G2F2GFED | 
[V:2] G2D2E2C2 | 
[V:3] A4G2A2- | 
[V:4] D,4z4 | 
[V:1] C2F4E2- | 
[V:2] F3GABc2- | 
[V:3] AGFED2A2 | 
[V:4] z4z2C,2- | 
[V:1] E2F2G2A2- | 
[V:2] c4def2- | 
[V:3] G2A2B2c2- | 
[V:4] C,B,,A,,2G,,2F,,2- | 
[V:1] AGFEF2E2- | 
[V:2] fed2c2B2 | 
[V:3] cBA4G2 | 
[V:4] F,,2F,,4G,,2 | 
[V:1] E2D2E4- | 
[V:2] c3dG2c2- | 
[V:3] F4E4- | 
[V:4] A,,2B,,2C,3D, | 
[V:1] E8- | 
[V:2] c2B4G2- | 
[V:3] E8- | 
[V:4] E,F,G,3F,E,D, | 
[V:1] E8- | 
[V:2] G2c4B2 | 
[V:3] E8- | 
[V:4] C,3B,,A,,2G,,2 | 
[V:1] E8 |]  
[V:2] c3BB4 |]  
[V:3] E8 |]  
[V:4] A,,4E,,4 |]  



